X:1
T:Aquinas, 88.887
T:Aquinas, 88.887
T:Johann Adam Hiller, 1793
T:Public Domain Courtesy of the Cyber Hymnal™
C:Johann Adam Hiller, 1793
Z:Public Domain
Z:Courtesy of the Cyber Hymnal™
%%score ( 1 2 ) ( 3 4 )
L:1/8
Q:1/4=110
M:none
K:G
V:1 treble 
V:2 treble 
V:3 bass 
V:4 bass 
V:1
 [DG]2 ([DF][^CE]) [DF]2 [EF]2 | B2 [FA]2 ([FA][EG]) [EG]2 | [EB]2 [^DB]2 [Ee]2 (^dc) | %3
 B2 z [FB]2 [FB]2 x | [Gd]2 [Gd]2 c2 [GB]2 | [GA]2 (Bc) (cB) [DB]2 | [DB]2 [^DB]2 c2 [GB]2 | %7
 [EA]2 [EG]2 (GF) [DF]2 x | [FA]2 [EG]2 [Ac]2 [GB]2 | [FA]2 ([EG][^DF]) E4 |] %10
V:2
 x8 | (^DE) x6 | x6 F2 | G3 (A2 F) x2 | x4 (EF) x2 | x2 F2 G2 x2 | x4 (EF) x2 | x4 D2 x3 | x8 | %9
 x4 E4 |] %10
V:3
 [G,,B,]2 [A,,A,]2 [D,A,]2 [C,^A,]2 | B,2 [^D,B,]2 [E,B,]2 [E,B,]2 | %2
 [E,G,]2 [F,A,]2 [G,B,]2 [A,C]2 | [B,D]2 [CE]2 (E^D) [B,D]2 | [B,D]2 [G,B,]2 (CD) [E,E]2 | %5
 [C,E]2 [D,D]2 [G,,D]2 [G,B,]2 | [G,B,]2 [F,A,]2 (G,A,) [D,B,]2 | C3 z B, (B,A,) [D,A,]2 | %8
 [^D,B,]2 [E,B,]2 [F,^D]2 [G,E]2 | [A,C]2 B,[B,,A,] [E,G,]4 |] %10
V:4
 x8 | (B,,^C,) x6 | x8 | x4 B,2 x2 | x4 A,2 x2 | x8 | x4 E,2 x2 | C,2 (C,2 D,2) x3 | x8 | %9
 x2 B, x5 |] %10

